src/views/landingPage/assets/make-special/dex.svg

<svg xmlns="http://www.w3.org/2000/svg" width="80" height="80" viewBox="0 0 112 109"><path fill="#449FD8" d="M88.345 51.574c7.588-3.55 12.764-10.49 14.175-18.53-6.124-13.649-17.857-23.99-32.426-28.193a38.454 38.454 0 016.771 24.17c6.446 5.445 10.851 13.529 11.48 22.553zM27.27 38.542a25.184 25.184 0 00-21.858 8.054C3.23 61.683 7.869 76.84 18.099 88.158a38.898 38.898 0 016.831-24.483c-2.74-8.627-1.61-17.731 2.34-25.133zm5.74 38.386c-2.997 8.079-1.755 17.193 3.642 24.215 12.155 4.943 26.051 5.146 38.643-.035-7.818-2.516-14.886-7.518-19.887-14.731-8.175-.147-16.284-3.345-22.398-9.449zm30.112-54.726c-1.507-8.158-7.053-15.383-15.23-18.732C33.778 5.711 20.745 13.966 12.76 26.631c8.115-2.487 16.74-2.178 24.529.639 7.527-5.262 16.754-7.126 25.833-5.068zm22.769 44.255c-3.086 7.399-8.722 13.188-15.678 16.61 6.194 5.604 14.805 7.758 22.852 5.834 9.054-9.587 13.884-22.198 13.9-35.009a38.663 38.663 0 01-21.074 12.565z"/><circle fill="#F04D5C" cx="56.035" cy="53.892" r="15.972"/></svg>

<?xml version="1.0" encoding="utf-8"?>
<!-- Generator: Adobe Illustrator 17.0.0, SVG Export Plug-In . SVG Version: 6.00 Build 0)  -->
<!DOCTYPE svg PUBLIC "-//W3C//DTD SVG 1.1//EN" "http://www.w3.org/Graphics/SVG/1.1/DTD/svg11.dtd">
<svg version="1.1" id="Layer_1" xmlns="http://www.w3.org/2000/svg" xmlns:xlink="http://www.w3.org/1999/xlink" x="0px" y="0px"
	 width="80px" height="80px" viewBox="0 0 112 109" enable-background="new 0 0 112 109" xml:space="preserve">
<g>
	<path fill="#449FD8" d="M88.345,51.574c7.588-3.55,12.764-10.49,14.175-18.53C96.396,19.395,84.663,9.054,70.094,4.851
		c4.923,7.133,7.272,15.583,6.771,24.17C83.311,34.466,87.716,42.55,88.345,51.574z M27.27,38.542
		c-8.207-1.045-16.333,1.973-21.858,8.054C3.23,61.683,7.869,76.84,18.099,88.158c-0.527-8.64,1.856-17.306,6.831-24.483
		C22.19,55.048,23.32,45.944,27.27,38.542z M33.01,76.928c-2.997,8.079-1.755,17.193,3.642,24.215
		c12.155,4.943,26.051,5.146,38.643-0.035c-7.818-2.516-14.886-7.518-19.887-14.731C47.233,86.23,39.124,83.032,33.01,76.928z
		 M63.122,22.202C61.615,14.044,56.069,6.819,47.892,3.47C33.778,5.711,20.745,13.966,12.76,26.631
		c8.115-2.487,16.74-2.178,24.529,0.639C44.816,22.008,54.043,20.144,63.122,22.202z M85.891,66.457
		c-3.086,7.399-8.722,13.188-15.678,16.61c6.194,5.604,14.805,7.758,22.852,5.834c9.054-9.587,13.884-22.198,13.9-35.009
		C101.549,60.198,94.131,64.67,85.891,66.457z"/>
	<g>
		<circle fill="#F04D5C" cx="56.035" cy="53.892" r="15.972"/>
	</g>
</g>
</svg>
